X:1
T:God Loved the World
T:William Gustavus Fischer
T:God Loved the World
T:Public Domain
T:Public Domain
C:William Gustavus Fischer
Z:Public Domain
%%score ( 1 2 ) ( 3 4 )
L:1/8
M:6/8
K:Eb
V:1 treble 
V:2 treble 
V:3 bass 
V:4 bass 
V:1
 [B,E] | [B,E]2 [EG] [EB]2 [Ec] | (BG)[DF] [B,E]2 E | A2 A c2 c | ([EB-]3 FE)[B,G] | %5
w: 1.~God|loved the world of|sin- * ners lost, And|ined by the fall;|tion * * *|
w: 2.~E’en|now by faith I|claim * Him mine, The|en Son of God;|tion * * *|
w: 3.~Love|brings the glor- ious|full- * ness in, And|His saints makes known|èd * * *|
w: 4.~Be-|liev- ing souls, re-|joic- * ing go; There|to you be giv’n|ious * * *|
 E2 G [EB]2 [Ec] | (BG)[=DF] (_DC)[EG] | F2 B [Ec]2 [Fd] | ([DB]3- DEF) ||"^Refrain" B2 c B2 G | %10
w: at high- est cost,|of- * fers free * to||||
w: His death I find,|cleans- * ing through * the|’twas love, ’twas wond-|love, * * *|The love of God|
w: from in- bred sin,|faith * in Christ * a-||||
w: taste, here be- low,|end- * less life * in||||
 ([EG][DF])[CE] [DB]2 [EB] | [Ec]2 [Ec] (ed)[Ec] | (E2 E DE)[FB] | [GB]2 [Ac] [GB]2 [EG] | %14
w: ||||
w: It * brought my Sav-|ior from a- * bove,|die * * * on|va- ry! * *|
w: ||||
w: ||||
 ([EG][DF])[CE] [DB]2 [Dc] | [EB]2 [EG] (ED)[B,E] | [B,E]3- [B,E]2 |] %17
w: |||
w: |||
w: |||
w: |||
V:2
 x | x6 | E2 x4 | E3 E3 | x3 B3 | B,3 x3 | _D2 E2 x2 | D3 x3 | x3 B2 x || E3 E3 | x6 | x3 E2 x | %12
w: ||ru-|Sal- va-|full,|He|all. *||||||
w: ||ris-|Re- demp-|by|And|blood. O|rous||to me;||To|
w: ||to|The bless-|rest|Through|lone. *||||||
w: ||shall|A glor-|fore-|Of|Heav’n. *||||||
 B3- B2 x | x6 | x6 | x3 F2 x | x5 |] %17
w: |||||
w: Cal- *|||||
w: |||||
w: |||||
V:3
 [E,G,] | G,2 B, [G,,B,]2 [A,,A,] | (G,B,)[B,,A,-] (A,G,)(E,/_D,/) | [C,A,]3 [A,,A,]3 | %4
 [E,G,]3 (D,C,)[D,A,] | [E,G,]3 [E,G,]2 [A,,A,] | (F,B,)[=B,,A,] [C,G,]2 [C,=B,] | %7
 [F,B,]3 [F,,=A,]3 | ([B,,B,]3- B,,C,D,) || G,2 A, [E,G,]2 [D,B,] | %10
 [C,=A,]2 [F,A,] [B,,B,]2 [E,G,] | [A,,A,]3 (CB,)[C,A,] | (G,2 G, F,G,)[B,,A,] | %13
 B,2 E [E,E]2 [E,B,] | [F,=A,]2 [F,A,] [B,,B,]2 [B,,_A,] | [E,G,]2 [E,B,] [B,,A,]2 [E,G,] | %16
 [E,G,]3- [E,G,]2 |] %17
V:4
 x | E,3 x3 | B,,2 E,2 G, x | x6 | x3 A,2 x | x6 | =B,,2 x4 | x6 | x3 B,2 x || E,3 x3 | x6 | %11
 x3 A,,2 x | E,3 B,,2 x | E,3 x3 | x6 | x6 | x5 |] %17

